X:1
T:Keep Thou Me
T:Keep Thou Me
T:George Asbury McLaughlin
T:Frances Jane (Fanny) Crosby, 1892
T:Public Domain Courtesy of the Cyber Hymnal™
C:George Asbury McLaughlin
Z:Public Domain
Z:Courtesy of the Cyber Hymnal™
%%score ( 1 2 ) ( 3 4 )
L:1/8
Q:1/4=115
M:4/4
K:G
V:1 treble 
V:2 treble 
V:3 bass 
V:4 bass 
V:1
 [DG]>[DA] | [GB]2 [GB]2 [Gc]2 [Gc]2 | [GB]3 [DA] [DG]2 [DG]2 | [DF]3 [DG] [DA]>[DG] [DB]>[DA] | %4
w: 1.~Je- sus,|Sav- ior, oh, how|trust- ful- ly I|lean on Thee wher- e’er I|
w: 2.~Je- sus,|Sav- ior, oh, how|ten- der- ly With-|in my heart Thy words I|
w: 3.~Je- sus,|Sav- ior, oh, how|joy- ful- ly I|give my all to Thy con-|
w: 4.~Je- sus,|Sav- ior, Thou hast|prom- ised me That|o’er life’s bil- lows, wild and|
 (G4 D2) [DG]>[DA] | [GB]2 [GB]2 [Gc]2 [Gc]2 | [GB]3 [DA] [DG]2 [DG]2 | %7
w: go; * In Thy|mer- cy Thou wilt|shel- ter me, From|
w: hear; * Thro’ Thy|Spir- it sweet- ly|tell- ing me, That|
w: trol; * Clouds may|ga- ther, yet how|peace- ful- ly, The|
w: dark, * Safe- ly,|sure- ly Thou wilt|an- chor me, And|
 [DF]3 [DG] [DA]>[DG] [DB]>[DA] | [DG]6 z2 ||"^Refrain" d4- [Gd]>[Ac] [GB]>[Ac] | d4 [GB]4 | %11
w: storms that beat, and winds that|blow.|||
w: I am safe, for Thou art|near.|Trust- ing, I am trust-|* ing,|
w: sun shines bright- ly in my|soul.|||
w: home- ward bring mys wave- tossed|bark.|||
 c4 [Ac]>[GB] [FA]>[GB] | [Fc]4 [FA]4 | G2 [DG]2 [FA]2 [FA]2 | [GB]2 [Fc]2 [Gd]4 | %15
w: ||||
w: Trust- ing, I am trust-|* ing;|Trust- ing, trust- ing,|Lord, in Thee;|
w: ||||
w: ||||
 [GB]3 [DG] (BA) (GF) | [DG]6 |] %17
w: ||
w: Ev- er keep * Thou *|me.|
w: ||
w: ||
V:2
 x2 | x8 | x8 | x8 | D6 x2 | x8 | x8 | x8 | x8 || G2 B2 x4 | (G2 B2) x4 | A2 F2 x4 | x8 | G2 x6 | %14
 x8 | x4 D2 D2 | x6 |] %17
V:3
 [G,B,]>[G,C] | [G,D]2 [G,D]2 [G,E]2 [G,E]2 | [G,D]3 [G,C] [G,B,]2 [G,B,]2 | %3
w: ~ ~|~ ~ ~ ~|~ ~ ~ ~|
 [D,A,]3 [D,B,] [D,C]>[D,B,] [D,D]>[D,C] | [G,B,]6 [G,B,]>[G,C] | [G,D]2 [G,D]2 [G,E]2 [G,E]2 | %6
w: ~ ~ ~ ~ ~ ~|~ ~ ~|~ ~ ~ ~|
 [G,D]3 [G,C] [G,B,]2 [G,B,]2 | [D,A,]3 [D,B,] [D,C]>[D,B,] [D,D]>[D,C] | [G,B,]6 z2 || %9
w: ~ ~ ~ ~|~ ~ ~ ~ ~ ~|~|
 [G,B,]2 [G,D]2 [G,B,]>[G,D] [G,D]>[G,D] | (B,2 D2) [E,D]4 | %11
w: Trust- ing Je- sus, ~ ~|~ * ~|
 [D,D]2 [D,A,]2 [D,D]>[D,D] [D,D]>[D,D] | (D2 A,2) (D2 C2) | [G,B,]2 [G,B,]2 [D,D]2 [C,D]2 | %14
w: Trust- ing Je- sus, * *|||
 [B,,D]2 [A,,D]2 [G,,B,]4 | [D,D]3 [D,B,] (DC) (B,A,) | [G,,G,B,]6 |] %17
w: |||
V:4
 x2 | x8 | x8 | x8 | x8 | x8 | x8 | x8 | x8 || x8 | G,4 x4 | x8 | D,4 D,4 | x8 | x8 | x4 D,2 D,2 | %16
 x6 |] %17

